Newaita-dark/actions/32/gnumeric-object-list.svg

<svg height="32" viewBox="0 0 32 32" width="32" xmlns="http://www.w3.org/2000/svg"><g fill="#e0e0e0"><path d="m15.214844 13.8125h-10.585938c-.363281 0-.660156-.296875-.660156-.664062v-1.320313c0-.367187.296875-.664063.660156-.664063h10.585938c.367187 0 .660156.296876.660156.664063v1.320313c0 .367187-.292969.664062-.660156.664062zm0 0"/><path d="m15.214844 6.535156h-10.585938c-.363281 0-.660156-.296875-.660156-.664062v-1.320313c0-.367187.296875-.664062.660156-.664062h10.585938c.367187 0 .660156.296875.660156.664062v1.320313c0 .367187-.292969.664062-.660156.664062zm0 0"/><path d="m27.785156 22.742188h-9.261718l4.628906 6.613281zm0 0"/><path d="m15.214844 21.089844h-10.585938c-.363281 0-.660156-.296875-.660156-.664063v-1.324219c0-.363281.296875-.660156.660156-.660156h10.585938c.367187 0 .660156.296875.660156.660156v1.324219c0 .367188-.292969.664063-.660156.664063zm0 0"/><path d="m27.785156 9.511719h-9.261718l4.628906-6.617188zm0 0"/><path d="m15.214844 28.363281h-10.585938c-.363281 0-.660156-.292969-.660156-.660156v-1.324219c0-.363281.296875-.660156.660156-.660156h10.585938c.367187 0 .660156.296875.660156.660156v1.324219c0 .367187-.292969.660156-.660156.660156zm0 0"/></g></svg>

<?xml version="1.0" encoding="UTF-8"?>
<svg xmlns="http://www.w3.org/2000/svg" xmlns:xlink="http://www.w3.org/1999/xlink" width="32px" height="32px" viewBox="0 0 32 32" version="1.1">
<g id="surface1">
<path style=" stroke:none;fill-rule:nonzero;fill:rgb(87.843138%,87.843138%,87.843138%);fill-opacity:1;" d="M 15.214844 13.8125 L 4.628906 13.8125 C 4.265625 13.8125 3.96875 13.515625 3.96875 13.148438 L 3.96875 11.828125 C 3.96875 11.460938 4.265625 11.164062 4.628906 11.164062 L 15.214844 11.164062 C 15.582031 11.164062 15.875 11.460938 15.875 11.828125 L 15.875 13.148438 C 15.875 13.515625 15.582031 13.8125 15.214844 13.8125 Z M 15.214844 13.8125 "/>
<path style=" stroke:none;fill-rule:nonzero;fill:rgb(87.843138%,87.843138%,87.843138%);fill-opacity:1;" d="M 15.214844 6.535156 L 4.628906 6.535156 C 4.265625 6.535156 3.96875 6.238281 3.96875 5.871094 L 3.96875 4.550781 C 3.96875 4.183594 4.265625 3.886719 4.628906 3.886719 L 15.214844 3.886719 C 15.582031 3.886719 15.875 4.183594 15.875 4.550781 L 15.875 5.871094 C 15.875 6.238281 15.582031 6.535156 15.214844 6.535156 Z M 15.214844 6.535156 "/>
<path style=" stroke:none;fill-rule:nonzero;fill:rgb(87.843138%,87.843138%,87.843138%);fill-opacity:1;" d="M 27.785156 22.742188 L 18.523438 22.742188 L 23.152344 29.355469 Z M 27.785156 22.742188 "/>
<path style=" stroke:none;fill-rule:nonzero;fill:rgb(87.843138%,87.843138%,87.843138%);fill-opacity:1;" d="M 15.214844 21.089844 L 4.628906 21.089844 C 4.265625 21.089844 3.96875 20.792969 3.96875 20.425781 L 3.96875 19.101562 C 3.96875 18.738281 4.265625 18.441406 4.628906 18.441406 L 15.214844 18.441406 C 15.582031 18.441406 15.875 18.738281 15.875 19.101562 L 15.875 20.425781 C 15.875 20.792969 15.582031 21.089844 15.214844 21.089844 Z M 15.214844 21.089844 "/>
<path style=" stroke:none;fill-rule:nonzero;fill:rgb(87.843138%,87.843138%,87.843138%);fill-opacity:1;" d="M 27.785156 9.511719 L 18.523438 9.511719 L 23.152344 2.894531 Z M 27.785156 9.511719 "/>
<path style=" stroke:none;fill-rule:nonzero;fill:rgb(87.843138%,87.843138%,87.843138%);fill-opacity:1;" d="M 15.214844 28.363281 L 4.628906 28.363281 C 4.265625 28.363281 3.96875 28.070312 3.96875 27.703125 L 3.96875 26.378906 C 3.96875 26.015625 4.265625 25.71875 4.628906 25.71875 L 15.214844 25.71875 C 15.582031 25.71875 15.875 26.015625 15.875 26.378906 L 15.875 27.703125 C 15.875 28.070312 15.582031 28.363281 15.214844 28.363281 Z M 15.214844 28.363281 "/>
</g>
</svg>
